X: 65
M: C|
L: 1/16
K: F
c3Fd3F c3FB3d | c3F (3A2G2F2 EG3G2 AB |\
c3Fd3F c3FB3d | (3F2G2A2 (3G2A2B2 AF3F2 :|
ag |\
fgag f3c d3ff3g | fgag f3d eg3g3a |\
fgag f3c d3fc3A | (3B2c2d2 G2A2B2 AF3F2 ag |
fgag f3c d3ff3g | fgag f3d eg3g3a |\
a3bg3a f3gd3f | (3B2c2d2 (3G2A2B2 AF3F2 H|]

